X: 3012
T: The Cadies Lady
P: Duke of Kent
C:A. Ogilvie Grey Album
R:Reel (8x32)
B:RSCDS 30-7
Z:Anselm Lingnau <anselm@strathspey.org>
M:C
L:1/8
K:C
"C"C2EC cCEC|"Dm"FEDF "G"FDdD|"C"EDCD EF"C#o"GE|"Dm"FD"G"GE "C"C2C2|
"C"C2EC cCEC|"Dm"FEDF "G"FDdD|"C"EDCD EF"C#o"GE|"Dm"FD"G"GE "C"C2C2||
"C"e2dc e2dc|"Dm"dcBc "G7"defd|"C"e2dc "F"Ac"C"Gc|"G7"edcB "C"c2c2|
"C"e2dc e2dc|"Dm"dcBc "G7"defd|"C"ec"G"dB "Am"cA"G"BG|"F"AF"C"GE "Dm"FE"G"DE|]
%%center Book30/3007-Cadies_Lady-AL.abc

%%sep 1 1 500
%%sep 1 1 500

